build/system/ChevronUpOutline.svg

<svg xmlns="http://www.w3.org/2000/svg" fill="none" viewBox="0 0 24 24" focusable="false"><path d="M0 0H24V24H0z"/><path fill="#74767B" d="M5.11963 15.4C5.11963 15.58 5.18963 15.75 5.32963 15.88C5.59963 16.12 6.00963 16.1 6.24963 15.84L11.9899 9.47091L17.5399 15.8801C17.7799 16.1501 18.1899 16.1601 18.4599 15.9201C18.7199 15.6801 18.7399 15.2701 18.4999 15.0001L12.5099 8.10091C12.2299 7.79091 11.7499 7.79091 11.4699 8.10091L5.28963 14.96C5.16963 15.09 5.11963 15.24 5.11963 15.4Z"/></svg>

<svg xmlns="http://www.w3.org/2000/svg" fill="none" viewBox="0 0 24 24" focusable="false"><path fill="#74767B" d="M5.11 15.4c0 .18.07.35.21.48.27.24.68.22.92-.04l5.74-6.37 5.56 6.41c.23.27.64.28.91.04.26-.24.28-.65.05-.92l-6-6.9a.7.7 0 0 0-1.04 0l-6.18 6.86c-.12.13-.17.28-.17.44"/></svg>
